X: 2902
T: Barnsley Abacus
R: three-two
M: 3/2
K: Eminor
EGA cABG|edB ABGF|EGA cABG|FAD FG{A}GF|
EGA cABG|edB ABGF|EGA cABG|FAD FGAB||
~e3 eddA|BGE FGGF|GFG EGBe|dBA FGBd|
~e3 eddA|BGE FGGF|GFG EGBe|dBA FGE2||
BGG cGBG|FAD FG{A}GF|GFG EGBe|dBA FGGA|
BGG cGBG|FAD FGGF|GFG EGBe|dBA FG{A}GF||

